storage/app/icons/phosphoricons/fill/text-b-fill.svg

<svg xmlns="http://www.w3.org/2000/svg" fill="currentColor" viewBox="0 0 256 256"><path d="M168 156a20 20 0 0 1-20 20H96v-40h52a20 20 0 0 1 20 20m56-108v160a16 16 0 0 1-16 16H48a16 16 0 0 1-16-16V48a16 16 0 0 1 16-16h160a16 16 0 0 1 16 16m-40 108a36 36 0 0 0-18-31.15A36 36 0 0 0 140 64H88a8 8 0 0 0-8 8v112a8 8 0 0 0 8 8h60a36 36 0 0 0 36-36m-24-56a20 20 0 0 0-20-20H96v40h44a20 20 0 0 0 20-20"/></svg>

<svg xmlns="http://www.w3.org/2000/svg" viewBox="0 0 256 256" fill="currentColor"><path d="M168,156a20,20,0,0,1-20,20H96V136h52A20,20,0,0,1,168,156ZM224,48V208a16,16,0,0,1-16,16H48a16,16,0,0,1-16-16V48A16,16,0,0,1,48,32H208A16,16,0,0,1,224,48ZM184,156a36,36,0,0,0-18-31.15A36,36,0,0,0,140,64H88a8,8,0,0,0-8,8V184a8,8,0,0,0,8,8h60A36,36,0,0,0,184,156Zm-24-56a20,20,0,0,0-20-20H96v40h44A20,20,0,0,0,160,100Z"/></svg>
